!!!!SEGMENT: pl-kk--kk-i-7--047-004_cadeac-pierre--missa-dei-patris-agnus-dei.krn
!!!cenid: 16xx:855
!!!COM: Cadéac, Pierre
!!!COM-rismID: pe30006011
!!!CDT: ~1500-~1599
!!!CNT: German
!!!OPR: Missa Dei Patris
!!!OTL: Agnus Dei
!!!OMV: 004
!!!PDT:
!!!AGN: Sacred; Mass
!!!SMS-siglum: PL-Kk
!!!SMS-shelfmark: Kk.I.7
!!!SMS-shelfwork: 047-004 M
!!!SMS-variant:
!!!SMS-altvar:
!!!NIFC-rismSourceID: 300258124
!!!NIFC-islandoraID: pl-kk:1956
!!!URL-pdf-islandora: https://repozytorium.nifc.pl/islandora/object/pl-kk%3A1956/datastream/PDF/view
!!!URL-scan: https://polish.musicsources.pl/pl/lokalizacje/galeria/rekopisy/6140 @EN{Scan on Polish Music Sources Website} @PL{Skany w portalu Dziedzictwo Muzyki Polskiej w otwartym dostępie}
!!!ONB-nifc: UWAGA: C (skan 0042-0043, s.78-80), A (0126-0127, s.72-74), T(0202-0203, s.68-70), B(0291-0292, s.69-71). Części Mszy: 1. Kyrie, 2. Et in terra, 3. Sanctus, 4. Agnus Dei
!!!AIN: 1 alto 1 empty 1 tenor 1 vox
!!!key:
**kern	**text	**kern	**text	**kern	**text	**kern	**text
*part4	*part4	*part3	*part3	*part2	*part2	*part1	*part1
*staff4	*staff4	*staff3	*staff3	*staff2	*staff2	*staff1	*staff1
*Iempty	*	*Itenor	*	*Ialto	*	*Ivox	*
*I"[Baſso]	*	*I"[Tenore]	*	*I"[Alto]	*	*I"[Canto]	*
*I'B	*	*I'T	*	*I'A	*	*I'S	*
*clefF4	*	*clefC3	*	*clefC3	*	*clefC1	*
*k[b-]	*	*k[b-]	*	*k[b-]	*	*k[b-]	*
*g:dor	*	*g:dor	*	*g:dor	*	*g:dor	*
*M2/1	*	*M2/1	*	*M2/1	*	*M2/1	*
*met(C|)	*	*met(C|)	*	*met(C|)	*	*met(C|)	*
=1-	=1-	=1-	=1-	=1-	=1-	=1-	=1-
*xywh-#292:7146,637,6047,799	*	*xywh-#203:1222,1936,5866,688	*	*xywh-#127:3275,1847,3945,729	*	*xywh-#43:1020,572,6105,940	*
!LO:TX:t=P:problem=znaki [B- BB-]	!	!	!	!	!	!	!
!LO:TX:t=P:problem=przed kluczem inicjał A	!	!LO:TX:t=P:problem=przed kluczem inicjał A	!	!LO:TX:t=P:problem=przed kluczem inicjał A	!	!LO:TX:t=P:problem=przed kluczem inicjał A	!
!LO:TX:t=P:met(c|):problem	!	!LO:TX:t=P:met(c|):problem	!	!LO:TX:t=P:met(c|):problem	!	!LO:TX:t=P:met(c|):problem	!
*	*	*	*	*	*	*lig	*
00r	.	0r	.	00r	.	1d/	A-
.	.	.	.	.	.	1.a\	.
*	*	*	*	*	*	*Xlig	*
=2-	=2-	=2-	=2-	=2-	=2-	=2-	=2-
!	!	!LO:TX:t=P:problem=kreska pseudotaktowa	!	!	!	!	!
.	.	1r	.	.	.	.	.
.	.	.	.	.	.	(4g/	-gnus
!	!	!	!	!	!	!LO:TX:t=P:problem=kreska pseudotaktowa	!
.	.	.	.	.	.	4f/)	.
*	*	*lig	*	*	*	*2\right	*
!	!	!	!	!	!	!LO:TX:t=P:problem=2\right&colon; global	!
.	.	1G/	A-	.	.	(2g\	De-
.	.	.	.	.	.	2b-\)	.
=3-	=3-	=3-	=3-	=3-	=3-	=3-	=3-
!LO:TX:t=P:problem=kreska pseudotaktowa	!	!	!	!	!	!LO:TX:t=P:problem=kreska pseudotaktowa	!
1r	.	1.d\	.	00r	.	1a\	-i
*lig	*	*	*	*	*	*	*ij
1D\	A-	.	.	.	.	1.a\	A-
*	*	*Xlig	*	*	*	*	*
.	.	4c/	-gnus	.	.	.	.
!	!	!LO:TX:t=P:problem=kreska pseudotaktowa	!	!	!	!	!
.	.	4B-/	.	.	.	.	.
=4-	=4-	=4-	=4-	=4-	=4-	=4-	=4-
1.A\	.	2.c/	De-	.	.	.	.
.	.	.	.	.	.	4g/	-gnus
.	.	4B-/	.	.	.	4f/	.
*	*	*2\right	*	*	*	*	*
.	.	2c\	.	.	.	2e/	De-
!	!	!LO:TX:t=P:problem=2\right&colon; global	!	!	!	!	!
*Xlig	*	*	*	*	*	*	*
(4G\	-gnus	1d\	.	.	.	2f/	.
!LO:TX:t=P:problem=kreska pseudotaktowa	!	!	!	!	!	!	!
4F\)	.	.	.	.	.	.	.
=5-	=5-	=5-	=5-	=5-	=5-	=5-	=5-
*2\right	*	*	*	*	*	*	*
!LO:TX:t=P:problem=2\right&colon; global	!	!	!	!LO:TX:t=P:problem=kreska pseudotaktowa	!	!	!
2G\	De-	.	.	1r	.	1e/	.
!	!	!LO:TX:t=P:problem=kreska pseudotaktowa	!	!	!	!	!
2A\	.	2c\	.	.	.	.	.
*	*	*	*	*lig	*	*	*
!	!	!	!	!	!	!LO:TX:t=P:problem=kreska pseudotaktowa	!
2B-,\	-i	2d\	.	1G/	A-	1d/	-i
1G\	A-	1B-/	.	.	.	.	.
=6-	=6-	=6-	=6-	=6-	=6-	=6-	=6-
.	.	.	.	1.d\	.	0r	.
4F\	.	4A/	.	.	.	.	.
4E\	.	4G/	.	.	.	.	.
2F\	.	2A/	.	.	.	.	.
!LO:TX:t=P:problem=kreska pseudotaktowa	!	!	!	!	!	!	!
*	*	*	*	*Xlig	*	*	*
2G\	.	2B-/	.	(4c/	-gnus	.	.
.	.	.	.	4B-/)	.	.	.
=7-	=7-	=7-	=7-	=7-	=7-	=7-	=7-
*	*	*	*	*2\right	*	*	*
!	!	!LO:TX:t=P:problem=kreska pseudotaktowa	!	!LO:TX:t=P:problem=2\right&colon; global	!	!LO:TX:t=P:problem=kreska pseudotaktowa	!
2C/	-gnus	1G/	-i	2c\	De-	1r	.
2.G\	De-	.	.	2d\	.	.	.
*	*	*	*	*	*	*lig	*Xij
.	.	1r	.	2G,/	-i	1d/	A-
4F\	.	.	.	.	.	.	.
4E\	.	.	.	1d\	A-	.	.
4D\	.	.	.	.	.	.	.
=8-	=8-	=8-	=8-	=8-	=8-	=8-	=8-
*	*	*lig	*	*	*	*	*
1E\	.	1G/	A-	.	.	1.g\	.
.	.	.	.	2c\	-gnus	.	.
1D\	-i,	1.d\	.	2B-/	De-	.	.
!LO:TX:t=P:problem=kreska pseudotaktowa	!	!	!	!LO:TX:t=P:problem=kreska pseudotaktowa	!	!	!
*	*	*Xlig	*	*	*	*Xlig	*
.	.	.	.	2A/	.	(4f/	-gnus
!	!	!	!	!	!	!LO:TX:t=P:problem=kreska pseudotaktowa	!
.	.	.	.	.	.	4e/)	.
=9-	=9-	=9-	=9-	=9-	=9-	=9-	=9-
0r	.	.	.	4B-/	.	2f/	De-
.	.	.	.	4G/	.	.	.
.	.	(4c/	-gnus	1g\	.	2g/	.
.	.	4B-/)	.	.	.	.	.
!	!	!	!	!	!	!LO:TX:t=P:problem=kreska pseudotaktowa	!
.	.	(2c\	De-	.	.	1a\	.
!	!	!LO:TX:t=P:problem=kreska pseudotaktowa	!	!LO:TX:t=P:problem=kreska pseudotaktowa	!	!	!
.	.	2d\)	.	2f\	.	.	.
=10-	=10-	=10-	=10-	=10-	=10-	=10-	=10-
!	!	!LO:TX:t=P:problem=kreska pseudotaktowa	!	!	!	!	!
*	*	*	*	*	*	*lig	*
2r	.	1G/	-i	2e\	.	1b-\	-i,
!LO:TX:t=P:problem=kreska pseudotaktowa	!	!	!	!	!	!	!
2G\	Qui	.	.	1d\	.	.	.
!	!	!	!	!	!	!LO:TX:t=P:problem=kreska pseudotaktowa	!
2G\	tol-	2r	.	.	.	1g\	.
2G\	-lis	2d\	Qui	4c/	.	.	.
.	.	.	.	4B-/	.	.	.
!	!	!LO:TX:t=P:problem=kreska pseudotaktowa	!	!	!	!	!
*	*	*	*	*	*	*Xlig	*
=11-	=11-	=11-	=11-	=11-	=11-	=11-	=11-
2F\	pec-	2d\	tol-	2A/	.	0r	.
!	!	!LO:TX:t=P:problem=kreska pseudotaktowa	!	!LO:TX:t=P:problem=kreska pseudotaktowa	!	!	!
2G\	-ca-	2d\	-lis	2G/	-i	.	.
2C/	-ta	2c\	pec-	2r	.	.	.
1G\	mun-	2d\	.	2g\	qui	.	.
=12-	=12-	=12-	=12-	=12-	=12-	=12-	=12-
.	.	2G/	-ca-	2g\	tol-	2r	.
*	*	*	*	*custos:f	*	*	*
!	!	!	!	!LO:TX:t=P:problem=kreska pseudotaktowa	!	!	!
4F\	.	1d\	-ta-	2g\	-lis	2dd\	Qui
4E\	.	.	.	.	.	.	.
!	!	!	!	!LO:LB:g=original	!	!	!
!LO:TX:t=P:problem=kreska pseudotaktowa	!	!	!	!	!	!	!
*	*	*	*	*xywh-#127:1424,2516,5817,662	*	*	*
1D\	-di	.	.	1.f\	pec-	2dd\	tol-
!	!	!	!	!	!	!LO:TX:t=P:problem=kreska pseudotaktowa	!
.	.	4c/	.	.	.	2dd\	-lis
.	.	4B-/	.	.	.	.	.
=13-	=13-	=13-	=13-	=13-	=13-	=13-	=13-
!	!	!LO:TX:t=P:problem=kreska pseudotaktowa	!	!	!	!	!
1r	.	1A/	-mun-	.	.	1cc\	pec-
.	.	.	.	2e\	-ca-	.	.
2r	.	2B-/	.	2d\	-ta	2b-\	-ca-
1D\	pec-	1d\	.	2.f\	mun-	2.a\	-ta-
=14-	=14-	=14-	=14-	=14-	=14-	=14-	=14-
.	.	.	.	4e\	.	4g/	.
2D/	-ca-	2A/	.	2.d\	.	1f/	-mun-
*	*	*lig	*	*	*	*	*
1G\	-ta	1B-/	.	.	.	.	.
.	.	.	.	4c/	.	.	.
.	.	.	.	1B-/	.	2e/	.
=15-	=15-	=15-	=15-	=15-	=15-	=15-	=15-
!	!	!	!	!	!	!LO:TX:t=P:problem=kreska pseudotaktowa	!
1F\	mun-	1c\	.	.	.	1f/	-di
.	.	.	.	2A/	.	.	.
!	!	!	!	!LO:TX:t=P:problem=kreska pseudotaktowa	!	!	!
*	*	*Xlig	*	*	*	*	*
!	!	!	!	!LO:TX:t=P:problem=kreska pseudotaktowa	!	!	!
0BB-/	-di	0d\	-di	1B-/,	-di	2r	.
.	.	.	.	.	.	1f/	mi-
*	*	*xywh-#203:1215,2517,5902,702	*	*	*	*	*
=16-	=16-	=16-	=16-	=16-	=16-	=16-	=16-
!LO:TX:t=P:problem=kreska pseudotaktowa	!	!	!	!	!	!	!
.	.	.	.	1B-/	mi-	.	.
!	!	!	!	!	!	!LO:TX:t=P:problem=kreska pseudotaktowa	!
.	.	.	.	.	.	2f/	-ſe-
!	!	!LO:LB:g=original	!	!	!	!LO:LB:g=original	!
*	*	*	*	*	*	*xywh-#43:1347,1327,5165,739	*
1r	.	00r	.	2B-/	-ſe-	2g\	-re-
.	.	.	.	2c/	-re-	2a\	.
=17-	=17-	=17-	=17-	=17-	=17-	=17-	=17-
2r	.	.	.	1.d\	-re	2f/	-re
1BB-/	mi-	.	.	.	.	2.b-\	no-
.	.	.	.	.	.	4a\	.
2BB-/	-ſe-	.	.	4c/	.	1g\	.
.	.	.	.	4B-/	.	.	.
=18-	=18-	=18-	=18-	=18-	=18-	=18-	=18-
!	!	!LO:TX:t=P:problem=kreska pseudotaktowa	!	!	!	!	!
2C/	-re-	.	.	1A/	no-	.	.
*custos:GG	*	*	*	*	*	*	*
!LO:TX:t=P:problem=kreska pseudotaktowa	!	!	!	!	!	!	!
2D/	-re	.	.	.	.	2f/	.
!LO:LB:g=original	!	!	!	!LO:TX:t=P:problem=kreska pseudotaktowa	!	!LO:TX:t=P:problem=kreska pseudotaktowa	!
*xywh-#292:7138,1269,5975,703	*	*	*	*	*	*	*
2GG/	no-	2r	.	1G/	-bis	1g\	.
1G\	.	2B-/	Qui	.	.	.	.
=19-	=19-	=19-	=19-	=19-	=19-	=19-	=19-
.	.	2B-/	tol-	2r	.	2d/	.
!	!	!	!	!LO:TX:t=P:problem=kreska pseudotaktowa	!	!	!
*	*	*	*	*	*ij	*	*
4F\	.	2c\	-lis	2G/	mi-	1g\	.
4E\	.	.	.	.	.	.	.
!	!	!LO:TX:t=P:problem=kreska pseudotaktowa	!	!	!	!	!
1D\	.	1d\	pec-	2.A/	-ſe-	.	.
!	!	!	!	!	!	!LO:TX:t=P:#above:problem	!
.	.	.	.	.	.	2f#X/	.
.	.	.	.	4B-/	-re-	.	.
=20-	=20-	=20-	=20-	=20-	=20-	=20-	=20-
!LO:TX:t=P:problem=kreska pseudotaktowa	!	!	!	!	!	!LO:TX:t=P:problem=kreska pseudotaktowa	!
1C/	-bis	2G/	-ca-	2c/	-re	1g\	-bis.
.	.	2.c/	-ta-	2G/	no-	.	.
!	!	!	!	!LO:TX:t=P:problem=kreska pseudotaktowa	!	!	!
2.F\	mi-	.	.	1A/	-bis	1r	.
.	.	4B-/	.	.	.	.	.
.	.	4A/	.	.	.	.	.
4E\	-ſe-	4G/	.	.	.	.	.
=21-	=21-	=21-	=21-	=21-	=21-	=21-	=21-
4D/	-re-	2F/	.	0r	.	2r	.
4C/	.	.	.	.	.	.	.
!	!	!	!	!	!	!LO:TX:t=P:problem=kreska pseudotaktowa	!
*	*	*	*	*	*	*	*ij
2.D/	.	2B-/	.	.	.	2d/	mi-
.	.	2A/	.	.	.	2f/	-ſe-
4C/	.	.	.	.	.	.	.
2BB-/	-re	1G/	-mun-	.	.	2g/	.
=22-	=22-	=22-	=22-	=22-	=22-	=22-	=22-
!	!	!	!	!LO:TX:t=P:problem=kreska pseudotaktowa	!	!LO:TX:t=P:problem=kreska pseudotaktowa	!
1AA/	no-	.	.	1r	.	1a\	-re-
!	!	!LO:TX:t=P:#above:problem	!	!	!	!	!
.	.	2F#X/	.	.	.	.	.
!LO:TX:t=P:problem=kreska pseudotaktowa	!	!LO:TX:t=P:problem=kreska pseudotaktowa	!	!	!	!	!
1GG/	-bis.	1G/	-di	2r	.	2d,/	-re
*	*	*	*	*	*Xij	*	*
.	.	.	.	2B-/	mi-	1dd\	no-
=23-	=23-	=23-	=23-	=23-	=23-	=23-	=23-
00r	.	1r	.	(2B-/	-ſe-	.	.
!	!	!	!	!LO:TX:t=P:problem=kreska pseudotaktowa	!	!	!
.	.	.	.	2c\)	.	4cc\	.
.	.	.	.	.	.	4b-\	.
.	.	2r	.	1d\	-re-	2a\	.
!	!	!	!	!	!	!LO:TX:t=P:problem=kreska pseudotaktowa	!
.	.	1B-/	mi-	.	.	2f/	.
=24-	=24-	=24-	=24-	=24-	=24-	=24-	=24-
*	*	*	*	*	*	*lig	*
.	.	.	.	2G,/	-re	1b-\	.
!	!	!LO:TX:t=P:problem=kreska pseudotaktowa	!	!	!	!	!
.	.	2B-/	-ſe-	1g\	no-	.	.
.	.	2c\	-re-	.	.	1a\	.
.	.	2d\	-[re]	2f\	.	.	.
*	*	*	*	*	*	*Xlig	*
=25-	=25-	=25-	=25-	=25-	=25-	=25-	=25-
!LO:TX:t=P:problem=brak 1/1	!	!	!	!	!	!	!
*	*	*	*	*	*	*lig	*
1ryy	.	2.G/	no-	2g\	.	1g\	-bis.
.	.	.	.	2d\	.	.	.
.	.	4A/	.	.	.	.	.
!	!	!	!	!	!	!LO:TX:t=P:problem=kreska pseudotaktowa	!
2r	.	4B-/	.	1.d\	.	1f/	.
.	.	4A/	.	.	.	.	.
1BB-/	mi-	2.B-/	.	.	.	.	.
*	*	*	*	*	*	*Xlig	*Xij
=26-	=26-	=26-	=26-	=26-	=26-	=26-	=26-
.	.	.	.	.	.	1r	.
.	.	4A/	.	.	.	.	.
2BB-/	-ſe-	1G/	.	4c/	.	.	.
.	.	.	.	4B-/	.	.	.
2C/	-re-	.	.	1A/	.	1a\	mi-
!LO:TX:t=P:problem=kreska pseudotaktowa	!	!	!	!	!	!	!
2D/	.	2F/	.	.	.	.	.
=27-	=27-	=27-	=27-	=27-	=27-	=27-	=27-
!	!	!	!	!LO:TX:t=P:problem=kreska pseudotaktowa	!	!	!
2GG/	-re	2G/	.	1G/	-bis	2b-\	-ſe-
!	!	!	!	!	!	!LO:TX:t=P:problem=kreska pseudotaktowa	!
2.G\	no-	2.B-/	.	.	.	2b-\	-re-
.	.	.	.	2r	.	2g\	-re
4F\	.	4A/	.	.	.	.	.
*	*	*	*	*	*ij	*	*
4E\	.	4G/	.	2B-/	mi-	2.b-\	no-
4D\	.	4F/	.	.	.	.	.
=28-	=28-	=28-	=28-	=28-	=28-	=28-	=28-
*	*	*lig	*	*	*	*	*
1E\	.	1G/	.	2B-/	-ſe-	.	.
.	.	.	.	.	.	4a\	.
.	.	.	.	2c\	-re-	1g\	.
1D\	.	1A/	.	1d\	-re	.	.
.	.	.	.	.	.	2f#X/	.
*	*	*Xlig	*	*	*	*	*
=29-	=29-	=29-	=29-	=29-	=29-	=29-	=29-
0GG/;	-bis.	0Bn/;	-bis.	1d\	no-	0g\;	-bis.
!	!	!	!	!LO:N:vis=0	!	!	!
.	.	.	.	1d\;	-bis	.	.
*	*	*	*	*	*Xij	*	*
!	!	!	!	!LO:LB:g=original	!	!LO:LB:g=original	!
=30||-	=30||-	=30||-	=30||-	=30||-	=30||-	=30||-	=30||-
*	*	*	*	*xywh-#127:1390,3057,5891,709	*	*	*
*M2/1	*	*M2/1	*	*M2/1	*	*M2/1	*
*met(C|)	*	*met(C|)	*	*met(C|)	*	*met(C|)	*
!	!	!	!	!	!	!LO:TX:t=P:met(c|):problem	!
!LO:TX:a:i:t=Agnus 2dum Tacet.	!	!LO:TX:a:i:t=Agnus 2dum Tacet	!	!LO:TX:t=P:met(c|):problem	!	!LO:TX:a:t=à 2.	!
*	*	*	*	*	*	*xywh-#43:1297,1932,5836,663	*
0ryy	.	0ryy	.	1d\	A-	0r	.
.	.	.	.	2c/	-gnus	.	.
.	.	.	.	2B-/	.	.	.
=31-	=31-	=31-	=31-	=31-	=31-	=31-	=31-
!	!	!	!	!	!	!LO:TX:t=P:problem=kreska pseudotaktowa	!
*	*	*	*	*	*ij	*	*
0ryy	.	0ryy	.	1e\	A-	1r	.
!	!	!	!	!LO:TX:t=P:problem=kreska pseudotaktowa	!	!	!
.	.	.	.	1d\	.	1a\	A-
=32-	=32-	=32-	=32-	=32-	=32-	=32-	=32-
0ryy	.	0ryy	.	2G/	-gnus	2g/	-gnus
*	*	*	*	*	*Xij	*	*
.	.	.	.	1B-/	De-	2f/	.
.	.	.	.	.	.	1b-\	De-
.	.	.	.	4A/	.	.	.
!	!	!	!	!LO:TX:t=P:problem=kreska pseudotaktowa	!	!	!
.	.	.	.	4G/	.	.	.
=33-	=33-	=33-	=33-	=33-	=33-	=33-	=33-
!	!	!	!	!	!	!LO:TX:t=P:problem=kreska pseudotaktowa	!
0ryy	.	0ryy	.	4F/	.	1a\	-i
.	.	.	.	4G/	.	.	.
.	.	.	.	4A/	.	.	.
.	.	.	.	4B-/	.	.	.
*	*	*	*	*	*	*	*ij
.	.	.	.	2c\	.	2g/	A-
.	.	.	.	1d\	.	2f/	-gnus
=34-	=34-	=34-	=34-	=34-	=34-	=34-	=34-
0ryy	.	0ryy	.	.	.	1e/	De-
.	.	.	.	2c\	.	.	.
.	.	.	.	0d\	-i	2d,/	-i
*	*	*	*	*	*	*	*Xij
!	!	!	!	!	!	!LO:TX:t=P:problem=kreska pseudotaktowa	!
.	.	.	.	.	.	2a\	qui
=35-	=35-	=35-	=35-	=35-	=35-	=35-	=35-
!	!	!	!	!LO:TX:t=P:problem=kreska pseudotaktowa	!	!	!
0ryy	.	0ryy	.	.	.	2b-\	tol-
.	.	.	.	.	.	2a,\	-lis
.	.	.	.	2r	.	1dd\	pec-
.	.	.	.	2d\	qui	.	.
=36-	=36-	=36-	=36-	=36-	=36-	=36-	=36-
0ryy	.	0ryy	.	2e\	tol-	2cc\	.
!	!	!	!	!LO:TX:t=P:problem=kreska pseudotaktowa	!	!	!
.	.	.	.	2d\	-lis	1dd\	-ca-
.	.	.	.	1g\	pec-	.	.
.	.	.	.	.	.	4cc\	-ta
!	!	!	!	!	!	!LO:TX:t=P:problem=kreska pseudotaktowa	!
.	.	.	.	.	.	4b-\	.
=37-	=37-	=37-	=37-	=37-	=37-	=37-	=37-
0ryy	.	0ryy	.	2.f\	-ca-	4a\	.
.	.	.	.	.	.	4b-\	.
.	.	.	.	.	.	1cc\	.
.	.	.	.	4e\	.	.	.
.	.	.	.	2d\	-ta	.	.
.	.	.	.	2B-/	.	1b-\	mun-
=38-	=38-	=38-	=38-	=38-	=38-	=38-	=38-
0ryy	.	0ryy	.	1c\	mun-	.	.
!	!	!	!	!	!	!LO:TX:t=P:problem=kreska pseudotaktowa	!
.	.	.	.	.	.	2a\	.
!	!	!	!	!LO:TX:t=P:problem=kreska pseudotaktowa	!	!	!
.	.	.	.	1B-/,	-di	2b-,\	-di
.	.	.	.	.	.	1f/	mi-
=39-	=39-	=39-	=39-	=39-	=39-	=39-	=39-
0ryy	.	0ryy	.	1B-/	mi-	.	.
!	!	!	!	!	!	!LO:TX:t=P:problem=kreska pseudotaktowa	!
.	.	.	.	.	.	2f/	-mi-
.	.	.	.	2B-/	-ſe-	2g\	-ſe-
.	.	.	.	2c\	.	2.a\	.
=40-	=40-	=40-	=40-	=40-	=40-	=40-	=40-
0ryy	.	0ryy	.	2.d\	-re-	.	.
.	.	.	.	.	.	4g/	.
.	.	.	.	.	.	4f/	.
.	.	.	.	4c/	.	4e/	.
.	.	.	.	2B-/	.	2.d/	.
.	.	.	.	4G/	.	.	.
!	!	!	!	!LO:TX:t=P:problem=kreska pseudotaktowa	!	!LO:TX:t=P:problem=kreska pseudotaktowa	!
.	.	.	.	4A/	.	4c/	.
=41-	=41-	=41-	=41-	=41-	=41-	=41-	=41-
0ryy	.	0ryy	.	4B-/	.	4d/	.
.	.	.	.	4c/	.	4e/	.
.	.	.	.	4d/	.	4f/	.
.	.	.	.	4e/	.	4g/	.
.	.	.	.	2f\	.	2a\	.
.	.	.	.	2.d\	.	(4f/	.
.	.	.	.	.	.	4g/)	.
=42-	=42-	=42-	=42-	=42-	=42-	=42-	=42-
0ryy	.	0ryy	.	.	.	4a\	.
.	.	.	.	4c/	.	4b-\	.
.	.	.	.	4A/	.	2.cc\	.
!	!	!	!	!LO:TX:t=P:problem=kreska pseudotaktowa	!	!	!
.	.	.	.	4B-/	.	.	.
.	.	.	.	4c\	.	.	.
.	.	.	.	4d\	.	4b-\	.
.	.	.	.	4e\	.	4g\	.
*	*	*	*	*custos:g	*	*custos:b	*
!	!	!	!	!LO:TX:t=P:problem=kreska pseudotaktowa	!	!LO:TX:t=P:problem=kreska pseudotaktowa	!
.	.	.	.	4f\	.	4a\	.
!	!	!	!	!LO:LB:g=original	!	!LO:LB:g=original	!
=43-	=43-	=43-	=43-	=43-	=43-	=43-	=43-
*	*	*	*	*xywh-#127:1397,3658,3439,601	*	*xywh-#43:1289,2495,2788,613	*
0ryy	.	0ryy	.	2g\	.	1.b-\	.
.	.	.	.	4G/	.	.	.
!	!	!	!	!LO:TX:t=P:problem=kreska pseudotaktowa	!	!	!
.	.	.	.	4A/	.	.	.
.	.	.	.	4B-/	.	.	.
.	.	.	.	4c/	.	.	.
.	.	.	.	2d\	-re	1a\	[re]
=44-	=44-	=44-	=44-	=44-	=44-	=44-	=44-
0ryy	.	0ryy	.	2c/	no-	.	.
.	.	.	.	2B-/	.	1g\	No-
.	.	.	.	1A/	.	.	.
.	.	.	.	.	.	2f#X/	.
=45-	=45-	=45-	=45-	=45-	=45-	=45-	=45-
!LO:TX:b:i:t=Agnus 3tium ut 1mum	!	!LO:TX:b:i:t=3tium ut 1mum	!	!LO:TX:b:i:t=Agnus 3tium ut 1mum	!	!LO:TX:b:i:t=Agnus 3tium Ut 1mum	!
0ryy	.	0ryy	.	0Bn/;	-bis.	0g\;	-bis.
==	==	==	==	==	==	==	==
*-	*-	*-	*-	*-	*-	*-	*-
!!!system-decoration: [(s1,s2,s3,s4)]
!!!EED: Leszek Kubiak
!!!EEV: 2021-03-16
!!!ENC: Andrzej Borzym
!!!END: 2021-02-26
!!!YEC: Copyright 2022 Narodowy Instytut Fryderyka Chopina (https://polishscores.org)
!!!YEM: Licence CC BY 4.0 (https://creativecommons.org/licenses/by/4.0)
!!!IIIF: https://repozytorium.nifc.pl/islandora/object/pl-kk%3A1956/datastream/IIIF/view
!!!ENC-iiif: Konrad Tyszka
!!!END-iiif: 2022-09-03
